public/svg/icon/rdn.svg

<svg xmlns="http://www.w3.org/2000/svg" xmlns:xlink="http://www.w3.org/1999/xlink" width="32" height="32" viewBox="0 0 32 32"><defs><linearGradient id="rdn-c" x1="50%" x2="50%" y1="0%" y2="100%"><stop offset="0%" stop-color="#FFF" stop-opacity=".5"/><stop offset="100%" stop-opacity=".5"/></linearGradient><circle id="rdn-b" cx="16" cy="15" r="15"/><filter id="rdn-a" width="111.7%" height="111.7%" x="-5.8%" y="-4.2%" filterUnits="objectBoundingBox"><feOffset dy=".5" in="SourceAlpha" result="shadowOffsetOuter1"/><feGaussianBlur in="shadowOffsetOuter1" result="shadowBlurOuter1" stdDeviation=".5"/><feComposite in="shadowBlurOuter1" in2="SourceAlpha" operator="out" result="shadowBlurOuter1"/><feColorMatrix in="shadowBlurOuter1" values="0 0 0 0 0 0 0 0 0 0 0 0 0 0 0 0 0 0 0.199473505 0"/></filter><path id="rdn-e" d="M10,5.00570995 L18.1114222,5.00570995 C18.2088221,4.97660997 18.2594104,5.06570992 18.3230185,5.1157099 C19.0917818,5.83160954 19.7679159,6.64450914 20.3690123,7.50660871 C21.2081421,8.7181081 21.8860651,10.0466074 22.3409623,11.4515067 C22.8233899,12.935606 23.0516832,14.5056052 22.9901623,16.0664044 C21.6119871,16.0660711 20.233812,16.0660711 18.8556368,16.0664044 C18.8789929,15.8592045 18.8807819,15.6503047 18.8780984,15.4422048 C18.834666,13.9706055 18.3811602,12.5284062 17.6661656,11.2504068 C16.9008809,9.88100752 15.8326626,8.69970811 14.6191396,7.7188086 C13.2972841,6.65000913 11.8088549,5.80640955 10.2584078,5.12360989 C10.1727357,5.08400991 10.0829887,5.05200993 10,5.00570995 Z M13.0015065,12.3326063 C14.3888916,14.8425384 15.7740239,17.3538038 17.1569034,19.8664026 C17.4897526,20.4720023 17.8264779,21.075602 18.1565442,21.6827017 C16.4359455,22.7854011 14.7209125,23.8968005 13.0005126,25 C13.0017053,20.7775354 13.0020366,16.5550709 13.0015065,12.3326063 Z"/><filter id="rdn-d" width="126.9%" height="117.5%" x="-13.5%" y="-6.2%" filterUnits="objectBoundingBox"><feOffset dy=".5" in="SourceAlpha" result="shadowOffsetOuter1"/><feGaussianBlur in="shadowOffsetOuter1" result="shadowBlurOuter1" stdDeviation=".5"/><feColorMatrix in="shadowBlurOuter1" values="0 0 0 0 0 0 0 0 0 0 0 0 0 0 0 0 0 0 0.204257246 0"/></filter></defs><g fill="none" fill-rule="evenodd"><g fill-rule="nonzero"><use fill="#000" filter="url(#rdn-a)" xlink:href="#rdn-b"/><use fill="#2A2A2A" fill-rule="evenodd" xlink:href="#rdn-b"/><use fill="url(#rdn-c)" fill-rule="evenodd" style="mix-blend-mode:soft-light" xlink:href="#rdn-b"/><circle cx="16" cy="15" r="14.5" stroke="#000" stroke-opacity=".097"/></g><g fill-rule="nonzero"><use fill="#000" filter="url(#rdn-d)" xlink:href="#rdn-e"/><use fill="#FFF" fill-rule="evenodd" xlink:href="#rdn-e"/></g></g></svg>

<svg xmlns="http://www.w3.org/2000/svg" xmlns:xlink="http://www.w3.org/1999/xlink" width="32" height="32" viewBox="0 0 32 32"><defs><filter id="a" width="111.7%" height="111.7%" x="-5.8%" y="-4.2%" filterUnits="objectBoundingBox"><feOffset dy=".5" in="SourceAlpha" result="shadowOffsetOuter1"/><feGaussianBlur in="shadowOffsetOuter1" result="shadowBlurOuter1" stdDeviation=".5"/><feComposite in="shadowBlurOuter1" in2="SourceAlpha" operator="out" result="shadowBlurOuter1"/><feColorMatrix in="shadowBlurOuter1" values="0 0 0 0 0 0 0 0 0 0 0 0 0 0 0 0 0 0 0.199473505 0"/></filter><filter id="d" width="126.9%" height="117.5%" x="-13.5%" y="-6.2%" filterUnits="objectBoundingBox"><feOffset dy=".5" in="SourceAlpha" result="shadowOffsetOuter1"/><feGaussianBlur in="shadowOffsetOuter1" result="shadowBlurOuter1" stdDeviation=".5"/><feColorMatrix in="shadowBlurOuter1" values="0 0 0 0 0 0 0 0 0 0 0 0 0 0 0 0 0 0 0.204257246 0"/></filter><linearGradient id="c" x1="50%" x2="50%" y1="0%" y2="100%"><stop offset="0%" stop-color="#FFF" stop-opacity=".5"/><stop offset="100%" stop-opacity=".5"/></linearGradient><circle id="b" cx="16" cy="15" r="15"/><path id="e" d="M10 5.006h8.111c.098-.03.148.06.212.11a14.88 14.88 0 012.046 2.39 15.153 15.153 0 011.972 3.946c.482 1.484.71 3.054.65 4.614h-4.135a5 5 0 00.022-.624c-.043-1.471-.497-2.914-1.212-4.192-.765-1.369-1.833-2.55-3.047-3.531-1.322-1.069-2.81-1.913-4.36-2.595-.086-.04-.176-.072-.259-.118zm3.002 7.327a4715.11 4715.11 0 014.155 7.533c.333.606.67 1.21 1 1.817C16.436 22.785 14.72 23.897 13 25V12.333z"/></defs><g fill="none"><use fill="#000" filter="url(#a)" xlink:href="#b"/><use fill="#2A2A2A" fill-rule="evenodd" xlink:href="#b"/><use fill="url(#c)" fill-rule="evenodd" style="mix-blend-mode:soft-light" xlink:href="#b"/><circle cx="16" cy="15" r="14.5" stroke="#000" stroke-opacity=".097"/><use fill="#000" filter="url(#d)" xlink:href="#e"/><use fill="#FFF" fill-rule="evenodd" xlink:href="#e"/></g></svg>
